X:20
T:Lady Ann Stewart's Reel
M:C|
L:1/8
R:Reel
B: Cahusac - Annual Collection of Twenty Four Favorite Country Dances for 1809, No. 20 (London)
N:"With proper Directions to each Dance as they are performed at
N:Court, Bath, and all Public Assemblies."
Z:Transcribed and edited by Flynn Titford-Mock, 2007
Z:abc's:AK/Fiddler's Companion
K:A
B|(A/B/c) BA (BG).F.B|(A/B/c) BA ceae|(A/B/c) BA (BA).F.B|AFEF A2A:|
|:f|ecac BAFB|ecac faea|ecac (BA)FB|{B}AFEF (A2 A)e/f/|
ecac BAFB|ecac faea|dfca cAFB|{B}AFEF A2A:||

